src/com/lilithsthrone/res/items/spell_book.svg

<?xml version="1.0" encoding="UTF-8" standalone="no"?>
<svg
   xmlns:dc="http://purl.org/dc/elements/1.1/"
   xmlns:cc="http://creativecommons.org/ns#"
   xmlns:rdf="http://www.w3.org/1999/02/22-rdf-syntax-ns#"
   xmlns:svg="http://www.w3.org/2000/svg"
   xmlns="http://www.w3.org/2000/svg"
   width="100%"
   height="100%"
   viewBox="0 0 64.000001 64.000001"
   id="svg4311"
   version="1.1">
  <defs
     id="defs4313">
    <pattern
       y="0"
       x="0"
       height="6"
       width="6"
       patternUnits="userSpaceOnUse"
       id="EMFhbasepattern" />
  </defs>
  <metadata
     id="metadata4316">
    <rdf:RDF>
      <cc:Work
         rdf:about="">
        <dc:format>image/svg+xml</dc:format>
        <dc:type
           rdf:resource="http://purl.org/dc/dcmitype/StillImage" />
        <dc:title></dc:title>
      </cc:Work>
    </rdf:RDF>
  </metadata>
  <g
     id="layer5"
     style="display:inline;opacity:1">
    <g
       id="g4216"
       transform="matrix(0.729,0,0,0.729,17.545755,22.47235)">
      <path
         id="path4190"
         d="M 5.2998938,41.888011 C 12.651155,47.193782 24.340933,51.842476 32.510832,54.363457 37.085031,51.008923 56.438583,34.930972 58.618867,30.786671 L 41.243645,25.525287 c -11.98125,5.454241 -25.99743,8.2996 -35.9437512,16.362724 z"
         style="fill:#ff5555;fill-rule:evenodd;stroke:#000000;stroke-width:0.81px;stroke-linecap:butt;stroke-linejoin:miter;stroke-opacity:1" />
      <path
         id="path4192-3"
         d="m 54.777663,33.873195 c -0.589671,0.615419 0.703943,1.291916 1.228774,0.762159 1.072641,-1.08271 3.95539,-3.221532 3.648065,-4.134967 -0.375726,-1.116738 -2.165864,-1.211467 -4.247729,-1.813642 -0.993213,-0.287286 -1.067536,0.786547 -0.567177,1.104152 1.005051,0.63796 2.252782,0.281918 2.468871,1.014009 0.298177,1.010198 -1.469754,1.960907 -2.530804,3.068289 z"
         style="display:inline;opacity:1;fill:#d3c22a;fill-opacity:1;fill-rule:evenodd;stroke:#000000;stroke-width:0.81px;stroke-linecap:butt;stroke-linejoin:miter;stroke-opacity:1" />
      <path
         id="path4192-3-1-9-4"
         d="M 8.9861544,39.189894 C 9.6856566,38.702916 8.5765147,37.963472 7.9574795,38.379265 6.6923032,39.229058 3.8789084,40.705927 3.9999702,41.662043 4.1479775,42.830959 5.423985,43.149177 7.3461166,44.150269 8.2631241,44.62787 8.5478553,43.58981 8.1199955,43.179727 7.2605717,42.356009 5.96712,42.458873 5.8997207,41.698538 5.8067181,40.649367 7.7274727,40.066162 8.9861544,39.189894 Z"
         style="display:inline;opacity:1;fill:#d3c22a;fill-opacity:1;fill-rule:evenodd;stroke:#000000;stroke-width:0.81px;stroke-linecap:butt;stroke-linejoin:miter;stroke-opacity:1" />
      <path
         id="path4198"
         d="M 5.6795813,41.743368 C 6.2634034,41.443729 10.345879,39.058043 10.308153,39.067475 L 9.5126171,28.002296 6.258153,30.71435 C 4.7535221,34.521867 5.3255004,38.121723 5.6795813,41.743368 Z"
         style="fill:#ff2a2a;fill-rule:evenodd;stroke:#000000;stroke-width:0.81px;stroke-linecap:butt;stroke-linejoin:miter;stroke-opacity:1" />
      <path
         id="path4196"
         d="M 5.2456522,41.888011 C 4.0431878,41.387858 4.1523903,29.229271 6.0050272,29.647608 l 0.9401791,0.97634 C 5.5967426,34.204051 5.9797195,37.507894 6.1135096,41.273279 Z"
         style="fill:#ff5555;fill-rule:evenodd;stroke:#000000;stroke-width:0.81px;stroke-linecap:butt;stroke-linejoin:miter;stroke-opacity:1" />
      <path
         id="path4261"
         d="M 6.9452063,40.983993 C 6.9090479,40.767029 7.0898488,30.750511 7.0898488,30.750511 l 50.9504472,-9.61875 c -0.615326,3.213956 -2.700293,5.611444 -0.976339,10.125 L 31.912895,52.212427 Z"
         style="fill:#f4eed7;fill-rule:evenodd;stroke:#000000;stroke-width:0.81px;stroke-linecap:butt;stroke-linejoin:miter;stroke-opacity:1" />
      <path
         id="path4192"
         d="m 27.357929,51.398278 c -0.7696,-0.366288 -1.573673,1.192228 -0.922097,1.554911 1.830742,1.019037 4.878605,2.177726 5.785714,2.097322 1.683015,-0.14918 3.69335,-1.793387 4.917857,-3.326786 0.645179,-0.80793 -0.836451,-1.341026 -1.193304,-0.867857 -0.216522,0.287097 -2.249461,2.216869 -3.833035,2.332366 -1.688783,0.12317 -4.21103,-1.530992 -4.755135,-1.789956 z"
         style="fill:#d3c22a;fill-opacity:1;fill-rule:evenodd;stroke:#000000;stroke-width:0.81px;stroke-linecap:butt;stroke-linejoin:miter;stroke-opacity:1" />
      <path
         id="path4200"
         d="M 5.498778,29.991136 C 5.490678,28.653204 33.367811,10.806695 34.9336,10.934439 36.657788,11.075106 59.969842,18.979127 60.390742,20.155421 60.844083,21.422382 33.990348,41.666816 33.125564,41.779529 32.190747,41.90137 5.5052548,31.062367 5.498778,29.991136 Z"
         style="fill:#ff8080;fill-rule:evenodd;stroke:#000000;stroke-width:0.81px;stroke-linecap:butt;stroke-linejoin:miter;stroke-opacity:1" />
      <path
         id="path4192-3-1"
         d="m 56.288888,23.091571 c -0.58967,0.615419 0.703943,1.291916 1.228774,0.762159 1.072641,-1.08271 3.95539,-3.221532 3.648065,-4.134967 -0.375726,-1.116738 -2.038017,-1.467162 -4.119882,-2.069337 -0.993213,-0.287286 -1.502217,0.837686 -1.001857,1.155291 1.00505,0.63796 2.892018,0.512043 3.108107,1.244134 0.298178,1.010198 -1.802157,1.935337 -2.863207,3.04272 z"
         style="display:inline;opacity:1;fill:#d3c22a;fill-opacity:1;fill-rule:evenodd;stroke:#000000;stroke-width:0.81px;stroke-linecap:butt;stroke-linejoin:miter;stroke-opacity:1" />
      <path
         id="path4256"
         d="m 11.935385,29.991136 18.405804,8.389285 c 1.344468,-0.767234 2.770761,-1.239899 4.59241,-0.289285 L 55.111278,21.963457 C 53.838417,21.347183 53.435327,20.626536 54.568867,19.721493 L 37.030921,13.031761 c -1.574831,1.128342 -2.780049,0.778232 -3.977679,0.397768 L 12.18851,28.146939 c 0.820475,0.440723 1.395058,0.928732 -0.253125,1.844197 z"
         style="fill:none;fill-rule:evenodd;stroke:#000000;stroke-width:0.405;stroke-linecap:butt;stroke-linejoin:miter;stroke-miterlimit:4;stroke-dasharray:none;stroke-opacity:1" />
      <ellipse
         ry="0.28282925"
         rx="0.66251677"
         cy="12.724395"
         cx="34.788956"
         id="path4258-8"
         style="display:inline;opacity:1;fill:none;fill-opacity:1;stroke:#000000;stroke-width:0.2025;stroke-linecap:round;stroke-linejoin:round;stroke-miterlimit:4;stroke-dasharray:none;stroke-opacity:1" />
      <ellipse
         ry="0.21696427"
         rx="0.68705356"
         cy="29.340242"
         cx="10.742082"
         id="path4258"
         style="display:inline;opacity:1;fill:none;fill-opacity:1;stroke:#000000;stroke-width:0.2025;stroke-linecap:round;stroke-linejoin:round;stroke-miterlimit:4;stroke-dasharray:none;stroke-opacity:1" />
      <ellipse
         ry="0.36960411"
         rx="0.65888977"
         cy="39.212116"
         cx="32.87244"
         id="path4258-9"
         style="display:inline;opacity:1;fill:none;fill-opacity:1;stroke:#000000;stroke-width:0.25882748;stroke-linecap:round;stroke-linejoin:round;stroke-miterlimit:4;stroke-dasharray:none;stroke-opacity:1" />
      <ellipse
         ry="0.35403708"
         rx="0.66140312"
         cy="20.788235"
         cx="56.051456"
         id="path4258-6"
         style="display:inline;opacity:1;fill:none;fill-opacity:1;stroke:#000000;stroke-width:0.25380087;stroke-linecap:round;stroke-linejoin:round;stroke-miterlimit:4;stroke-dasharray:none;stroke-opacity:1" />
      <path
         id="path4419"
         d="m 31.88294,51.688767 c 0.180105,-0.148041 0.36503,-0.298454 0.547609,-0.445859 -0.148357,-0.567353 -0.284954,-1.236896 -0.397805,-1.958139 -0.134728,-0.861056 -0.235267,-1.793415 -0.282646,-2.714419 -0.04736,-0.920674 -0.04164,-1.83049 0.03625,-2.648142 0.07767,-0.815355 0.227808,-1.548112 0.475398,-2.113996 -0.345896,0.520808 -0.606614,1.237247 -0.795139,2.062163 -0.188208,0.823526 -0.30355,1.750191 -0.364324,2.695323 -0.06075,0.944808 -0.06705,1.909074 -0.03707,2.809512 0.02507,0.753036 0.0757,1.466524 0.142088,2.08838 0.225274,0.0827 0.450927,0.15821 0.675636,0.225177 z"
         style="fill:#d38d5f;fill-opacity:1;fill-rule:evenodd;stroke:none;stroke-width:1px;stroke-linecap:butt;stroke-linejoin:miter;stroke-opacity:1" />
      <path
         id="path4193"
         d="m 31.655581,50.10744 c 0,0 0.149021,-0.376587 0.149021,-0.376587 -1.265625,-0.500826 -5.211521,-1.626717 -6.477146,-2.127543 1.265625,0.500826 4.913479,2.379891 6.179104,2.880717 0,0 0.149021,-0.376587 0.149021,-0.376587 z"
         style="fill:#784421;fill-opacity:1;fill-rule:evenodd;stroke:none;stroke-width:1px;stroke-linecap:butt;stroke-linejoin:miter;stroke-opacity:1" />
      <path
         id="path4197"
         d="m 31.11317,50.234002 0.380716,0.270126 8.659462,-7.556509 -9.223281,6.856981 z"
         style="fill:#784421;fill-opacity:1;fill-rule:evenodd;stroke:none;stroke-width:1px;stroke-linecap:butt;stroke-linejoin:miter;stroke-opacity:1" />
      <path
         id="path4193-1"
         d="m 31.564886,45.917049 0.157681,-0.373044 -12.669288,-4.91546 12.353926,5.661548 z"
         style="display:inline;opacity:1;fill:#784421;fill-opacity:1;fill-rule:evenodd;stroke:none;stroke-width:1px;stroke-linecap:butt;stroke-linejoin:miter;stroke-opacity:1" />
      <path
         id="path4197-4"
         d="m 31.022476,46.043612 0.394079,0.177215 5.13851,-4.570741 -5.615928,3.969548 z"
         style="display:inline;opacity:1;fill:#784421;fill-opacity:1;fill-rule:evenodd;stroke:none;stroke-width:1px;stroke-linecap:butt;stroke-linejoin:miter;stroke-opacity:1" />
      <path
         id="path4193-1-9"
         d="m 23.074829,40.870366 -5.70058,-3.048785 -7.654821,-2.930096 7.28429,3.757773 z"
         style="display:inline;opacity:1;fill:#784421;fill-opacity:1;fill-rule:evenodd;stroke:none;stroke-width:1px;stroke-linecap:butt;stroke-linejoin:miter;stroke-opacity:1" />
      <path
         id="path4193-1-9-8"
         d="m 51.431729,32.250315 -5.384244,3.577934 -6.204872,5.355493 6.758505,-4.637278 z"
         style="display:inline;opacity:1;fill:#784421;fill-opacity:1;fill-rule:evenodd;stroke:none;stroke-width:1px;stroke-linecap:butt;stroke-linejoin:miter;stroke-opacity:1" />
      <path
         id="path4192-3-1-9"
         d="M 9.9734553,27.093026 C 10.672958,26.606048 9.5638156,25.866604 8.9447804,26.282397 7.6796041,27.13219 4.8662093,28.609059 4.9872711,29.565174 5.1352784,30.734091 6.4112859,31.052309 8.3334175,32.053401 9.250425,32.531002 9.5351562,31.492942 9.1072964,31.082859 8.2478726,30.259141 6.9544209,30.362005 6.8870216,29.60167 6.794019,28.552499 8.7147736,27.969294 9.9734553,27.093026 Z"
         style="display:inline;opacity:1;fill:#d3c22a;fill-opacity:1;fill-rule:evenodd;stroke:#000000;stroke-width:0.81px;stroke-linecap:butt;stroke-linejoin:miter;stroke-opacity:1" />
      <path
         id="path4192-8-0"
         d="m 39.283043,12.783502 c 0.705748,0.320682 1.493387,-0.949769 0.897235,-1.264749 -1.675022,-0.885004 -4.043639,-1.461556 -4.88875,-1.415966 -1.567989,0.08459 -4.137343,1.373883 -5.315067,2.613869 -0.620529,0.653334 0.742629,1.128389 1.086529,0.745276 0.208662,-0.232456 2.770259,-2.137097 4.244959,-2.196118 1.572675,-0.06294 3.476133,1.290967 3.975094,1.517688 z"
         style="display:inline;opacity:1;fill:#d3c22a;fill-opacity:1;fill-rule:evenodd;stroke:#000000;stroke-width:0.71041751px;stroke-linecap:butt;stroke-linejoin:miter;stroke-opacity:1" />
      <path
         id="path4192-8"
         d="m 27.88757,38.792336 c -0.769601,-0.366287 -1.573673,1.192228 -0.922098,1.554911 1.830743,1.019037 4.878605,2.177727 5.785714,2.097322 1.683015,-0.149179 4.018797,-1.576422 5.243304,-3.109821 0.645178,-0.80793 -0.836452,-1.341025 -1.193305,-0.867857 -0.216522,0.287098 -2.574906,1.999904 -4.158481,2.115401 -1.688783,0.123171 -4.211029,-1.530991 -4.755134,-1.789956 z"
         style="display:inline;opacity:1;fill:#d3c22a;fill-opacity:1;fill-rule:evenodd;stroke:#000000;stroke-width:0.81px;stroke-linecap:butt;stroke-linejoin:miter;stroke-opacity:1" />
      <path
         id="path4197-4-5"
         d="m 55.469922,27.280742 -0.670007,0.920285 -4.78974,3.362283 4.406362,-3.851042 z"
         style="display:inline;opacity:1;fill:#784421;fill-opacity:1;fill-rule:evenodd;stroke:none;stroke-width:1px;stroke-linecap:butt;stroke-linejoin:miter;stroke-opacity:1" />
      <path
         id="path4279-7-6-5"
         d="M 22.691324,26.360768 43.939957,18.056756 34.442052,32.745395 28.56938,18.31522 47.075796,25.913171 Z"
         style="display:inline;opacity:1;fill:none;fill-rule:evenodd;stroke:#ff2a2a;stroke-width:1.47899997;stroke-linecap:round;stroke-linejoin:round;stroke-miterlimit:4;stroke-dasharray:none;stroke-opacity:1" />
    </g>
  </g>
</svg>

<svg xmlns="http://www.w3.org/2000/svg" viewBox="0 0 64 64">
    <g transform="matrix(.729 0 0 .729 17.546 22.472)">
        <path fill="#f55" fill-rule="evenodd" stroke="#000" stroke-width=".81" d="M5.3 41.888c7.351 5.306 19.04 9.954 27.21 12.475C37.086 51.01 56.44 34.931 58.62 30.787l-17.375-5.262C29.262 30.98 15.246 33.825 5.3 41.888z"/>
        <path fill="#d3c22a" fill-rule="evenodd" stroke="#000" stroke-width=".81" d="M54.778 33.873c-.59.616.704 1.292 1.228.762 1.073-1.082 3.956-3.221 3.649-4.135-.376-1.116-2.166-1.211-4.248-1.813-.993-.288-1.068.786-.567 1.104 1.005.638 2.252.282 2.468 1.014.299 1.01-1.47 1.96-2.53 3.068zM8.986 39.19c.7-.487-.41-1.227-1.029-.81-1.265.85-4.078 2.326-3.957 3.282.148 1.169 1.424 1.487 3.346 2.488.917.478 1.202-.56.774-.97-.86-.824-2.153-.721-2.22-1.481-.093-1.05 1.827-1.633 3.086-2.51z"/>
        <path fill="#ff2a2a" fill-rule="evenodd" stroke="#000" stroke-width=".81" d="M5.68 41.743c.583-.3 4.666-2.685 4.628-2.676l-.795-11.065-3.255 2.712c-1.504 3.808-.932 7.408-.578 11.03z"/>
        <path fill="#f55" fill-rule="evenodd" stroke="#000" stroke-width=".81" d="M5.246 41.888c-1.203-.5-1.094-12.659.759-12.24l.94.976c-1.348 3.58-.965 6.884-.831 10.65z"/>
        <path fill="#f4eed7" fill-rule="evenodd" stroke="#000" stroke-width=".81" d="M6.945 40.984c-.036-.217.145-10.233.145-10.233l50.95-9.62c-.615 3.215-2.7 5.612-.976 10.126L31.913 52.212z"/>
        <path fill="#d3c22a" fill-rule="evenodd" stroke="#000" stroke-width=".81" d="M27.358 51.398c-.77-.366-1.574 1.193-.922 1.555 1.83 1.02 4.878 2.178 5.786 2.098 1.683-.15 3.693-1.794 4.917-3.327.646-.808-.836-1.341-1.193-.868-.216.287-2.25 2.217-3.833 2.332-1.689.123-4.211-1.53-4.755-1.79z"/>
        <path fill="#ff8080" fill-rule="evenodd" stroke="#000" stroke-width=".81" d="M5.499 29.991c-.008-1.338 27.869-19.184 29.435-19.057 1.724.141 25.036 8.045 25.457 9.221.453 1.267-26.4 21.512-27.265 21.625-.935.121-27.62-10.718-27.627-11.789z"/>
        <path fill="#d3c22a" fill-rule="evenodd" stroke="#000" stroke-width=".81" d="M56.289 23.092c-.59.615.704 1.291 1.229.762 1.072-1.083 3.955-3.222 3.648-4.135-.376-1.117-2.038-1.467-4.12-2.07-.993-.287-1.502.838-1.002 1.156 1.005.638 2.892.512 3.108 1.244.298 1.01-1.802 1.935-2.863 3.043z"/>
        <path fill="none" stroke="#000" stroke-width=".405" d="M11.935 29.991l18.406 8.39c1.345-.768 2.77-1.24 4.593-.29L55.11 21.963c-1.273-.616-1.676-1.336-.542-2.242l-17.538-6.69c-1.575 1.13-2.78.779-3.978.399L12.19 28.147c.82.44 1.395.929-.254 1.844z"/>
        <ellipse cx="34.789" cy="12.724" fill="none" stroke="#000" stroke-linecap="round" stroke-linejoin="round" stroke-width=".203" rx=".663" ry=".283"/>
        <ellipse cx="10.742" cy="29.34" fill="none" stroke="#000" stroke-linecap="round" stroke-linejoin="round" stroke-width=".203" rx=".687" ry=".217"/>
        <ellipse cx="32.872" cy="39.212" fill="none" stroke="#000" stroke-linecap="round" stroke-linejoin="round" stroke-width=".259" rx=".659" ry=".37"/>
        <ellipse cx="56.051" cy="20.788" fill="none" stroke="#000" stroke-linecap="round" stroke-linejoin="round" stroke-width=".254" rx=".661" ry=".354"/>
        <path fill="#d38d5f" fill-rule="evenodd" d="M31.883 51.689c.18-.148.365-.299.548-.446a20.292 20.292 0 0 1-.398-1.958 26.682 26.682 0 0 1-.283-2.715 18.47 18.47 0 0 1 .036-2.648c.078-.815.228-1.548.476-2.114-.346.521-.607 1.237-.795 2.062-.189.824-.304 1.75-.365 2.696-.06.945-.067 1.909-.037 2.81.025.752.076 1.466.142 2.088.226.082.451.158.676.225z"/>
        <path fill="#784421" fill-rule="evenodd" d="M31.656 50.107l.149-.376c-1.266-.501-5.212-1.627-6.478-2.128 1.266.501 4.914 2.38 6.18 2.881l.149-.377z"/>
        <path fill="#784421" fill-rule="evenodd" d="M31.113 50.234l.38.27 8.66-7.556-9.223 6.857zM31.565 45.917l.158-.373-12.67-4.915 12.354 5.661z"/>
        <path fill="#784421" fill-rule="evenodd" d="M31.022 46.044l.395.177 5.138-4.57-5.616 3.969zM23.075 40.87l-5.7-3.048-7.656-2.93 7.285 3.757zM51.432 32.25l-5.385 3.578-6.204 5.356 6.758-4.638z"/>
        <path fill="#d3c22a" fill-rule="evenodd" stroke="#000" stroke-width=".81" d="M9.973 27.093c.7-.487-.41-1.226-1.028-.81-1.265.85-4.079 2.326-3.958 3.282.148 1.17 1.424 1.487 3.346 2.488.917.478 1.202-.56.774-.97-.86-.824-2.153-.721-2.22-1.481-.093-1.05 1.828-1.633 3.086-2.509z"/>
        <path fill="#d3c22a" fill-rule="evenodd" stroke="#000" stroke-width=".71" d="M39.283 12.784c.706.32 1.493-.95.897-1.265-1.675-.885-4.043-1.462-4.888-1.416-1.568.084-4.138 1.374-5.316 2.614-.62.653.743 1.128 1.087.745.209-.233 2.77-2.137 4.245-2.196 1.573-.063 3.476 1.29 3.975 1.518z"/>
        <path fill="#d3c22a" fill-rule="evenodd" stroke="#000" stroke-width=".81" d="M27.888 38.792c-.77-.366-1.574 1.193-.923 1.555 1.831 1.02 4.88 2.178 5.786 2.098 1.683-.15 4.019-1.577 5.243-3.11.646-.808-.836-1.341-1.193-.868-.216.287-2.575 2-4.158 2.115-1.69.123-4.211-1.53-4.755-1.79z"/>
        <path fill="#784421" fill-rule="evenodd" d="M55.47 27.28l-.67.921-4.79 3.362 4.407-3.85z"/>
        <path fill="none" stroke="#ff2a2a" stroke-linecap="round" stroke-linejoin="round" stroke-width="1.479" d="M22.691 26.36l21.249-8.303-9.498 14.688-5.873-14.43 18.507 7.598z"/>
    </g>
</svg>
